!!! OTL: Berkowitz51
!!! Chapter: 1
!!! Section: I
!!! Page: 15
!!! Mode: 
!!! Encoder: DJB
**kern
*staff1
*I"Piano
=1-
*clefC3
*k[f#c#g#d#]
*E:
*M2/4
8e\L
8B\J
8e\L
8b\J
=2
8e\L
8B\J
4e\
=3
8f#\L
8g#\J
8a\L
8g#\J
=4
8f#\L
8e\J
4d#\
=5
8e\L
8B\J
8e\L
8b\J
=6
8e\L
8f#\J
8g#\L
8a\J
=7
8b\L
8a\J
8g#\L
8f#\J
=8
8e\L
8f#\J
4e\
==
*-
